X:39
T: 'SASS A NAEHTERIN UND SIE NAEHT
N: Z0040
O: Europa, Mitteleuropa, Deutschland, Kuhlaendchen
R: Sagen - Lied, Romanze
M: 2/4
L: 1/16
K: G
G2G2GGG2 | c4A4 | _B4z4
c2d2_eed2 | c2c2c2
=F2 | G2A2_B2d2 | A3A=F4 | G4z2
d2 | c3c=F4 | G4z4

